!!! OTL: Berkowitz148
!!! Chapter: 1
!!! Section: I
!!! Page: 33
!!! Mode: 
!!! Encoder: DJB
**kern
*staff1
*I"Piano
=1-
*clefC3
*k[f#c#]
*b:
*M3/4
4f#\
4B/
8r
8f#\
=2
4g\
4B/
8r
8g\
=3
4f#\
8e\L
8d\J
8.c#/L
16B/Jk
=4
4A#/
4c#\
4F#/
=5
4B/
4f#\
8r
8A#/
=6
4B/
4g\
4r
=7
8.f#\L
16e\Jk
8d\L
8c#\J
8B/L
8A#/J
=8
2.B/
==
*-
